icons/gimp.svg

<!--
  - The MIT License (MIT)
  -
  - Copyright (c) 2015-2024 Elior "Mallowigi" Boukhobza
  -
  - Permission is hereby granted, free of charge, to any person obtaining a copy
  - of this software and associated documentation files (the "Software"), to deal
  - in the Software without restriction, including without limitation the rights
  - to use, copy, modify, merge, publish, distribute, sublicense, and/or sell
  - copies of the Software, and to permit persons to whom the Software is
  - furnished to do so, subject to the following conditions:
  -
  - The above copyright notice and this permission notice shall be included in all
  - copies or substantial portions of the Software.
  -
  - THE SOFTWARE IS PROVIDED "AS IS", WITHOUT WARRANTY OF ANY KIND, EXPRESS OR
  - IMPLIED, INCLUDING BUT NOT LIMITED TO THE WARRANTIES OF MERCHANTABILITY,
  - FITNESS FOR A PARTICULAR PURPOSE AND NONINFRINGEMENT. IN NO EVENT SHALL THE
  - AUTHORS OR COPYRIGHT HOLDERS BE LIABLE FOR ANY CLAIM, DAMAGES OR OTHER
  - LIABILITY, WHETHER IN AN ACTION OF CONTRACT, TORT OR OTHERWISE, ARISING FROM,
  - OUT OF OR IN CONNECTION WITH THE SOFTWARE OR THE USE OR OTHER DEALINGS IN THE
  - SOFTWARE.
  -
  -->

<svg  version="1.1" xmlns="http://www.w3.org/2000/svg" viewBox="0 0 512 512" width="16px" height="16px">
  <path fill="#a89b71" data-iconColor="GIMP"
        d="M457.8113403,359.4449463l-57.4876099-35.5793152c27.7839355-46.2885742,42.7766113-120.2431335,29.9395447-236.7599335c-1.2509155-17.1808624-17.9017029-20.1114044-22.6229248-1.9869995c-20.0773926,60.2433167-86.8186951,82.6220093-137.2262268,90.9335327c-19.4072266-10.5767365-40.5252991-8.1172638-59.7909851,4.3874969c-47.2272491-3.4841919-82.5387573-30.604187-104.1348495-82.8384705l-2.3616409,101.5678558c-4.8335876,9.5075989-6.6124496,18.5739746-5.5960617,27.236557c-22.2413177-23.266037-53.1452141-36.2314758-79.4035416-18.4706116c-52.4222946,43.2775421,13.4115314,139.896637,71.3396988,128.6871643c83.6848831,58.5712891,191.6286011,84.9919739,270.7477112,30.8352051l76.9794617,29.8868408C451.4576721,419.3482971,453.8262329,408.9290466,512,439.1911926C498.3650818,392.9082031,493.4433594,356.1751404,457.8113403,359.4449463z M28.187851,257.0391846c-11.146307-7.7108154-11.146307-27.0915985,0-34.8023834c11.1463089-7.7108002,25.1545067,1.9799805,25.1545067,17.4015656C53.3423576,255.0591888,39.3341599,264.7499695,28.187851,257.0391846z M218.9603424,183.8961487c33.5701141-19.3537903,75.7604828,4.969574,75.7604828,43.6764679c0,38.7075653-42.1903687,63.0309296-75.7604828,43.6771393C185.3895264,251.8959656,185.3895264,203.2492523,218.9603424,183.8961487z M127.7992401,258.6950684c-27.7000046-16.0167084-27.7000046-56.2762756,0-72.2929688c24.4003754-14.1087799,54.3204956-0.1706696,61.1029205,25.2447052c-2.8382721,8.0832825-3.7027283,18.2236176-1.6241455,26.3041229C178.3892517,260.4905701,150.735733,271.957428,127.7992401,258.6950684z M329.2033997,331.0467529l5.1076965,3.0896912c-40.3978271,22.5059509-102.765625,15.6063232-178.4827881-6.4420776c67.9555969,9.2141418,135.513916,10.4284058,193.8742371-32.3782654l9.2315674,14.1422729C340.0443726,311.2963257,332.256897,322.1755981,329.2033997,331.0467529z M243.8470306,258.2151184c-17.3748627-10.0167999-17.3748627-35.1947784,0-45.2115784s39.2113495,2.5721741,39.2113495,22.6057892S261.2218933,268.2319336,243.8470306,258.2151184z M181.8641052,229.3916016c0-17.0651703-18.6009369-27.7888184-33.4013367-19.2562256c-14.8003845,8.5325775-14.8003845,29.9798737,0.0000153,38.5124664C163.2631683,257.1804199,181.8641052,246.4567871,181.8641052,229.3916016z"/>
</svg>

<svg xmlns="http://www.w3.org/2000/svg" viewBox="0 0 512 512"><path fill="#a89b71" d="m457.811 359.445-57.487-35.58c27.784-46.288 42.776-120.243 29.94-236.76-1.252-17.18-17.902-20.11-22.624-1.986-20.077 60.243-86.818 82.622-137.226 90.933-19.407-10.577-40.525-8.117-59.79 4.388-47.228-3.484-82.54-30.604-104.136-82.839l-2.361 101.568c-4.834 9.508-6.613 18.574-5.596 27.237-22.242-23.266-53.146-36.232-79.404-18.47-52.422 43.277 13.412 139.896 71.34 128.686 83.685 58.572 191.628 84.992 270.747 30.835l76.98 29.887c13.264 22.004 15.632 11.585 73.806 41.847-13.635-46.283-18.557-83.016-54.189-79.746M28.188 257.039c-11.146-7.71-11.146-27.091 0-34.802s25.154 1.98 25.154 17.401-14.008 25.112-25.154 17.401m190.772-73.143c33.57-19.354 75.76 4.97 75.76 43.677s-42.19 63.03-75.76 43.677-33.57-68 0-87.354m-91.16 74.8c-27.7-16.018-27.7-56.277 0-72.294 24.4-14.109 54.32-.17 61.102 25.245-2.838 8.083-3.703 18.223-1.624 26.304-8.889 22.54-36.542 34.006-59.479 20.744m201.403 72.35 5.108 3.09c-40.398 22.506-102.766 15.607-178.483-6.442 67.956 9.215 135.514 10.429 193.875-32.378l9.231 14.142c-18.89 1.838-26.677 12.718-29.73 21.589m-85.356-72.83c-17.375-10.018-17.375-35.196 0-45.212s39.211 2.572 39.211 22.605-21.836 32.623-39.211 22.606m-61.983-28.824c0-17.066-18.6-27.79-33.401-19.257-14.8 8.533-14.8 29.98 0 38.513s33.401-2.191 33.401-19.256" data-iconColor="GIMP"/></svg>
